packages/components/icon/src/assets/icons/ada.svg

<svg width="24" height="24" viewBox="0 0 24 24" fill="none" xmlns="http://www.w3.org/2000/svg">
<path fill-rule="evenodd" clip-rule="evenodd" d="M11.7773 5L16.31 9.53265L11.7773 14.0653L7.24466 9.53265L11.7773 5ZM6.53265 10.2447L11.0653 14.7773L6.53265 19.31L2 14.7773L6.53265 10.2447ZM21.5546 14.7773L17.022 10.2447L12.4893 14.7773L17.022 19.31L21.5546 14.7773Z" fill="currentColor"/>
</svg>

<svg viewBox="0 0 24 24" fill="none" xmlns="http://www.w3.org/2000/svg"><path fill-rule="evenodd" clip-rule="evenodd" d="m11.777 5 4.533 4.533-4.533 4.532-4.532-4.532L11.777 5Zm-5.244 5.245 4.532 4.532-4.532 4.533L2 14.777l4.533-4.532Zm15.022 4.532-4.533-4.532-4.533 4.532 4.533 4.533 4.533-4.533Z" fill="currentColor"/></svg>
